!!!OTL: Die Brombeerpflueckerin
!!!OTL-incipit:Es wollt' ein Maedchen in der Frueh aufstehn
!!!ARE: Europa, Mitteleuropa, Deutschland / France, Lothringen, Forbach, Kerbach
!!!YOR: 7, S. 71
!!    1980 aufgezeichnet
!!!SCT: Q0147
!!!YEM: Copyright 1995, estate of Helmut Schaffrath.
**kern	**text
*ICvox	*
*M4/4	*
*k[f#]	*
*G:	*
{4d	1._[Es
=1	=1
4g	wollt'
4g	ein
8gL	Mäd-
8gJ	-chen
8gL	in
8gJ	der
=2	=2
4e	Früh
4e	auf-
4d}	-stehn?]
{4d	drei-
=3	=3
4d	-vier-
4cc	-tel
4b	Stund
4a	vor
=4	=4
2g	Tag.
4r}	.
{8gL	woll-
8aJ	-te
=5	=5
4.b	in
8g	den
4b	Wald
4dd	spa-
=6	=6
4dd	-zie-
4cc	-ren
4.a}	gehn,
{8dd	hal-
=7	=7
4.dd	-li
8ff#	hal-
4.ff#	-lo
8ee	spa-
=8	=8
4ee	-zie-
4dd	-ren
4b}	gehn,
{8ddL	woll-
8ddJ	-te
=9	=9
4dd	Brom-
4cc	-beern
4e	bre-
4f#	-chen
=10	=10
8gL	gehn,
8gJ	wohl
8bL	in
8aJ	den
4g}	Wald
{8gL	woll-
8aJ	-te
=11	=11
4.b	in
8g	den
4b	Wald
4dd	spa-
=12	=12
4dd	-zie-
4cc	-ren
4.a}	gehn,
{8dd	hal-
=13	=13
4.dd	-li
8ff#	hal-
4.ff#	-lo
8ee	spa-
=14	=14
4ee	-zie-
4dd	-ren
4b}	gehn,
{8ddL	woll-
8ddJ	-te
=15	=15
4dd	Brom-
4cc	-beern
4e	bre-
4f#	-chen
=16	=16
2g	gehn.
4r}	.
==	==
!!!AGN: Ballade, Verfuehrung, Schwangerschaft
!! Zwei Notenwerte in der 5. Zeile rhythmisch korrigiert.
!!    Vierte und siebte Zeile refrainartig.
!!!ONB: ESAC (Essen Associative Code) Database: BALLADE
!!!AMT: simple quadruple
!!!AIN: vox
!!!EED: Helmut Schaffrath
!!!EEV: 1.0
!!@@COMMENT:"A 215022. Marie und Wilhelm Meyer,
!!Kerbach Forbach, Lothringen, 1980."
!!@@END:
!!!source: Deutsche Volkslieder mit ihren Melodien Balladen. Herausgegeben vom Deutschen Volksliedarchiv. Siebenterer Band. Freiburg/Breisgau 1982.
!!!page: 71
!!!ENC: Anna Maria Matuszewska
!!!EEV: 2025/03/07
*-	*-
